X:196055687354970
T:4-12-9-6-11-5-10-7-4-10-10-3-7-9-7-6
%%setfont-1 Courier-Bold 8
T:$1K.516f::69:130:114:45:135:2:62:91:66:77:19:56:101:115:23:93::$0
T:$1Perm. No.: 196055687354970$0
M:3/8
L:1/8
Q:1/8=111
%%staves [1 2]
V:1 clef=treble
V:2 clef=bass
K:C
%1
[V:1]|: (gec) |\
[V:2]|: [C,2E,2]z |\
%2
[V:1] [cE][cE][cE] |\
[V:2] C,C,C,   |\
%3
[V:1] [dB][dB][dB] |\
[V:2] G,G,G, |\
%4
[V:1] c/B/c/G/E/C/ |\
[V:2] [G,2E,2]z |\
%5
[V:1] ^ff/d/a |\
[V:2] D,D,D, & C,C,C,   |\
%6
[V:1] A^F/G/B/g/ |\
[V:2] [G,2B,,2]z |\
%7
[V:1] e/c/B/G/A/^F/ \
[V:2] C,D,D,, \
%8a
[V:1]|1 [g2d2B2G2]z :|2
[V:2]|1 G,,G,/=F,/E,/D,/ :|2
%8b
[V:1] [g2d2B2G2]z |:\
[V:2] G,,B,/G,/^F,/E,/ |:\
%9
[V:1] ^faf |\
[V:2] A,^F,D, & D,D,C, |\
%10
[V:1] g/b/gd |\
[V:2] [D,2B,,2][G,B,,] |\
%11
[V:1] e/c/eg |\
[V:2] [G,2C,2][E,C,] |\
%12
[V:1] d/B/Gz |\
[V:2] [G,2G,,2]G, |\
%13
[V:1] e/d/e/g/c'/g/ |\
[V:2] G,2 E, & C,2 C, |\
%14
[V:1] c/G/e/c/g/e/ |\
[V:2] [E,2C,2]z |\
%15
[V:1] f/e/d/e/f/g/ |\
[V:2] A,/G,/F,/G,/A,/B,/ |\
%16
[V:1] c2z :|]
[V:2] C,G,,C,, :|]
